X:1
T:The Lion King
T:Arr. Tim Hudson
T:Medly
%%score 1 2 3 4
L:1/8
Q:1/4=72
M:4/4
K:Bb
V:1 treble nm="Violins 1" snm="Vlns. 1"
V:2 treble nm="Violins 2" snm="Vlns. 2"
V:3 alto nm="Viola" snm="Vla."
V:4 bass nm="Violoncello" snm="Vlc."
V:1
"^Maestoso""^This Land"!mp! f2 | b2 a2 g3 f | g2 f2 g2 b2 | b2 a2 g3 f |!<(! g6!<)!!f! a2 | %5
 b2 a2 b3 f' | f'2 e'2 d'2 c'2 | e'2 d'2 b3 d' | c'8 || %9
[Q:1/4=200]"^Just Can't Wait to be King" d z fb z b z b | g2 e2 f2 z2 | d z fb z b z b | %12
 c'2 a2 f2 z2 | d z fb z b z b | g2 e2 f2 z2 | d z fb z bb z | b2 z2 z4 | z8 | z8 | z8 | z4 c4 | %21
 B z z2 z4 | z8 | z8 | d z d c3 B z | z8 | z8 | z8 | z4 c4 | B z z2 z4 | z8 | z8 | d z d c3 F2 | %33
 G2 B2 B2 B2 | B2 B2 d B3 | c8- | c z z2 GB- B2 | _d4 c B3 | f z z2 c B3 | B8- | B4 G B3 | %41
 _d4 c B3 | f8- | f8- | f8- | f z z2 c B3 | B8- | B8 | D z FB z BB z | B z z2 !fermata!z4 || %50
[K:Eb][Q:1/4=80]"^Moderato""^Can You Feel The Love Tonight?" g4 f2 b2 | a4- ageB | c4 BeBG | %53
 F2 G2 B4 | CD/E/- EF E B,3 | CD/E/- EF E4 | CD/E/- EF EB, G2 | AG<FG F4 | CD/E/- EF E B,3 | %59
 CD/E/- EF E4 | CD/E/- EB, BGEC | AG<FG F3 C ||[K:F] c2 A G3 cA- | A2 FD- D4 | z2 CF B2 A2 | %65
 G6 z2 | z2 D/E/ F3- FC | c2 A2 F/F/ D3 | B2 A2 G2 F2 | F8 | z4 z2 df | b2 a2 g2 f2 | f8 || %73
"^Circle of Life"[Q:1/4=90] z F/F/ FF/FF/F/F/ FC | z F/F/ FF/FF/F/F/ FC | z F/F/ FF/FF/F/F/ FC | %76
 z F/F/ FF/EE/E/E/ EE | z a/a/ aa/aa/a/a/ aa | z b/b/ bb/bb/b/b/ bb | z g/g/ gg/gg/g/g/ gg | %80
 z a/a/ aa/aa/a/a/ aa | z d/d/ dd/dd/d/d/ dd | z d/d/ dd/dd/d/d/ dd | z _e/e/ ee/ee/e/e/ ee | %84
 z f/f/ ff/ee/e/e/ ee | z a/a/ aa/aa/a/a/ aa | z b/b/ bb/bb/b/b/ bb | z g/g/ gg/gg/g/g/ gg | %88
 z a/a/ aa/aa/a/a/ aC | FFF F3 DE | FGG G3 DF | G2 z G/A/ B2 AF | c8 | z a/a/ aa/aa/a/a/ aa | %94
 z a/a/ aa/aa/a/a/ aa | z b/b/ bb/bb/b/b/ bb | z b/b/ bb/bb/b/b/ bb | z f/f/ ff/ff/f/f/ ff | %98
 z f/f/ ff/ff/f/f/ ff | z f/f/ ff/ff/f/f/ ff | z e/e/ ee/ee/e/e/ ee | z2 C2 F2 Ac | f8 | %103
 f3 f d2 BF | _D6 _d2 | c3 A2 G F2 | z2 CC B3/2A3/2G | F8- | F4"^Rit." (3!^!B2 !^!B2 !^!B2 | %109
 c2 A G3 c2- | c8 |] %111
V:2
 z2 | z8 | z8 | z8 | z4 z2!mf! A,2 | B,2 A,2 B,3 F | F2 E2 D2 C2 | E2 D2 B,3 D | C8 || %9
 D z FB z B z B | G2 E2 F2 z2 | D z FB z B z B | c2 A2 F2 z2 | D z FB z B z B | G2 E2 F2 z2 | %15
 D z FB z BB z | B2 z4!f! F2 | F F2 G3 B z | d c2 B3 F z | G B2 B3 c z | B6 z B | G G2 B3 B z | %22
 _d c2 B3 B z | _d z d z cG-GB- | B6 F z | F F2 G3 B z | d c2 B3 F z | G B2 B3 c z | B6 z B | %29
 G G2 B3 B z | _d c2 B3 B z | _d z d z dc-cB- | B6 z2 | z8 | z8 | F3 A3 c2 | f z z2 z4 | B8 | c8 | %39
 D z FB z B z B | G2 E2 F2 z2 | z8 | c8- | c8- | c8- | c z z2 z4 | D z FB z B z B | G2 E2 F2 z2 | %48
 D z FB z BB z | B z z2 !fermata!z4 ||[K:Eb] e4 f4 | e8 | A3 B G4 | B,2 E2 A2 G2 | z8 | z8 | z8 | %57
 z8 | z8 | z8 | z8 | z8 ||[K:F] f4 e4 | d4 c2 BA- | AGF z z4 | z2 CE G2 c2 | d4 c4 | z8 | z8 | z8 | %70
 z4 z2 DF | B2 A2 G2 F2 | F8 || A7 F/F/ | F B4- B A2 | B3 A G2 F2 | G8 | z f/f/ ff/ff/f/f/ ff | %78
 z f/f/ ff/ff/f/f/ ff | z f/f/ ff/ff/f/f/ ff | z f/f/ ff/ff/f/f/ fE | FFF F3 DE | FGG G3 DF | %83
 G2 z G/A/ B2 AF | G8 | z f/f/ ff/ff/f/f/ ff | z f/f/ ff/ff/f/f/ ff | z f/f/ ff/ff/f/f/ ff | %88
 z f/f/ ff/ff/f/f/ ff | z d/d/ dd/dd/d/d/ dd | z d/d/ dd/dd/d/d/ dd | z _e/e/ ee/ee/e/e/ ee | %92
 z2 CC c2 AG | A8- | A2 AA B c2 c- | c2 B6- | B2 BB c2 AG- | G F3 z4 | z2 CF B2 A2 | G6 Ac | c8 | %101
 z2 C2 F2 Ac | d8 | d3 d B2 GD | _D6 _d2 | c3 A2 G F2 | z2 CC B3/2A3/2G | _D8- | %108
 D4 (3!^!_D2 !^!D2 !^!D2 | c8 | A8 |] %111
V:3
 z2 | z4 z!p! F,B,C | B,8 | B,4 z F,B,F |!<(! E2!<)! D2 C2!mf! G,A, | B,3 B, F2 B,A, | %6
 B,3 B, G2 B,A, | B,3 A, G,4 | F,8 || D, z2 D, z2 D, z | z2 E,2 D, z z2 | D, z2 D, z2 D, z | %12
 z2 F,2 C, z z2 | D, z2 D, z2 D, z | z2 E,2 D, z z2 | D, z2 D, z2 E, z | D,2 z2 z4 | %17
!mf! D z2 D z2 D z | z2 !>!E2 D z z2 | D z2 D z2 D z | z2 !>!E2 D z z2 | D z2 D z2 D z | %22
 z2 !>!E2 D z z2 | D z2 D z2 D z | z2 !>!E2 D z z2 | D z2 D z2 D z | z2 !>!E2 D z z2 | %27
 D z2 D z2 D z | z2 !>!E2 D z z2 | D z2 D z2 D z | z2 !>!E2 D z z2 | D z2 D z2 D z | %32
 z2 !>!E2 D z z2 | z8 | z8 | z8 | z8 | D8 | E8 | D z2 D z2 D z | z2 !>!E2 D z z2 | z8 | C8- | C8- | %44
 C8- | C z z2 z4 | D, z2 D, z2 D, z | z2 E,2 D, z z2 | D, z2 D, z2 E, z | D, z z2 !fermata!z4 || %50
[K:Eb] E4 D4 | C4 B,4 | A,4 G,4 | F,2 G,2 A,2 B,2 | C4 B,4 | C4 B,4 | C4 B,2 E2 | A,4 B,4 | %58
 C4 B,4 | C4 B,4 | C4 B,2 E2 | A,4 B,2 B,2 ||[K:F] A,4 G,4 | A,4 B,4 | A,4 B,2 =B,2 | C6 z2 | %66
 B,4 A,4 | C4 B,4 | G,2 A,2 B,2 C2 | C2 A, G,3 CA,- | A,2 F,D,- D,4 | B,2 A,2 B,2 C2 | C8 || A,8 | %74
 B,8 | D8 | E6 A,B, | CCC C2 CDC- | CB,- B,2 z2 z G, | B, B,2 B, B,DCA,- | A,6 z2 | %81
 z A/A/ AA/AA/A/A/ AA | z B/B/ BB/BB/B/B/ BB | z B/B/ BB/BB/B/B/ BB | z A/A/ AA/GG/G/G/ A,B, | %85
 CCC C2 CDC- | CB,- B,2 z2 z G, | B, B,2 B, B,DCA,- | A,6 z2 | z A/A/ AA/AA/A/A/ AA | %90
 z B/B/ BB/BB/B/B/ BB | z B/B/ BB/BB/B/B/ BB | z E/E/ EE/EE/E/E/ EE | A,6 B,2 | A,8 | D6 _E2 | %96
 B,8 | D6 _E2 | D8 | C6 D2 | C2 CC C2 C2 | A,8- | A,2 A,A, B, C2 C- | C B,3- B,4- | B,6 z2 | F,8 | %106
 C,8 | _A,2 G,2 F,2 _E,2 | _D,4 (3!^!B,2 !^!B,2 !^!B,2 | A,8 | A,8 |] %111
V:4
 z2 |!p! B,,8 | E,,8 | F,,8 | E,,8 |!mf! F,,8 | G,,8 | B,,3 A,, G,,4 | F,,8 || %9
 B,, z2 B,, z2 B,, z | z2 B,,2 B,, z z2 | B,, z2 B,, z2 B,, z | z2 B,,2 A,, z z2 | %13
 B,, z2 B,, z2 B,, z | z2 B,,2 B,, z z2 | B,, z2 B,, z2 B,, z | B,,2 z2 z4 | B,,6 F,,2 | %18
 G,,4 F,,4 | B,,6 F,,2 | B,,4 _A,,4 | E,,6 E,,2 | C,4 B,,4 | E,,6 F,,2 | B,,4 B,,4 | B,,6 F,,2 | %26
 G,,4 F,,4 | B,,6 F,,2 | B,,4 B,,4 | E,,6 E,,2 | C,4 B,,4 | E,,6 F,,2 | B,,4 B,,4 | C,6 G,,2 | %34
 C,4 B,,4 | F,,3 F,,3 F,,2 | F,, z z2 z4 | E,,4 E,,4 | F,,4 F,,4 | B,, z2 B,, z2 B,, z | %40
 z2 B,,2 B,, z z2 | E,,4 E,,4 | F,,6 F,,2 | G,,3 F,,3 G,,2 | A,,3 F,,3 A,,2 | !^!F, z z2 z4 | %46
 B,, z2 B,, z2 B,, z | z2 B,,2 B,, z z2 | B,, z2 B,, z2 B,, z | B,, z z2 !fermata!z4 ||[K:Eb] z8 | %51
 z8 | z8 | z8 | z8 | z8 | z8 | z2 z2 E,2 D,2 | A,,4 G,,4 | A,,4 G,,4 | A,,4 G,,2 C,2 | %61
 _D,2 C,2 B,,2 C,2 ||[K:F] F,3 F, E,3 E, | D,3 D, B,,3 B,, | F,,3 F,, B,,2 =B,,2 | %65
 C,2 G,,2 E,,2 C,2 | F,4 F,4 | F,2 E,2 D,2 D,C, | B,,2 A,,2 B,,2 C,2 | F,,4 E,,4 | D,,4 [C,,C,]4 | %71
 B,,2 A,,2 G,,2 F,,2 | F,,8 || F,,8 | B,,8 | G,,8 | C,8 | F,,4 F,,4 | F,,3 F,, F,,2 F,2 | E,4 E,4 | %80
 F,3 F, F,2 E,2 | D,,3 D,, D,,4 | G,,3 G,, G,2 F,2 | _E,3 E, E,2 D,2 | C,2 C,2 C,2 C,2 | %85
 F,,4 F,,4 | F,,3 F,, F,,2 F,2 | E,4 E,4 | F,3 F, F,2 E,2 | D,,3 D,, D,,4 | G,,3 G,, G,2 F,2 | %91
 _E,3 E, E,2 D,2 | C,2 C,,2 C,,2 C,,2 | F,,8 | F,,8 | B,,8 | _E,,8 | B,,8 | B,,8 | C,8 | C,4 B,,4 | %101
 F,,8 | F,,8 | D,8 | _D,6 D,2 | C,3 A,,2 G,, F,,2 | C,,2 C,,C,, B,,3/2A,,3/2G,, | %107
 _D,2 C,2 B,,2 _A,,2 | G,,4 (3!^!B,,2 !^!B,,2 !^!B,,2 | F,,8 | F,,8 |] %111

